!! 00000] TT[WS
!!!OTL: Simian jing
!!!ARE: Asia, China,ÿShanxi Heshun
!! Ethnic Group: Han
!! WI, 124 (1)
!!!SCT: J0147
!!!YEM: Copyright 1995, estate of Helmut Schaffrath.
**kern
*ICvox
*Ivox
*M4/4
*k[f#]
*G:
{8dd
8ee
8dd
8b
2a
=1
8dd
8ee
8dd
8b
4a
8b
8a
=2
4g
4a
4dd
8b
8dd
=3
8a
8b
8a
8e
2g}
=4
{4g
4a
4dd
8b
8a
=5
8g
8a
8b
8dd
4a
8b
8a
=6
4d
4e
4a
4g
=7
8f#
4e
8B
2d}
=8
{8.dd
16ee
8dd
8b
4a
8b
8a
=9
4d
4e
4a
4g
=10
8f#
4e
8B
2d}
==
!!!AGN: Xiaodiao. Qingge
!!!ONB: ESAC (Essen Associative Code) Database: CHINA
!!!AMT: simple quadruple
!!!AIN: vox
!!!EED: Helmut Schaffrath
!!!EEV: 1.0
*-
